X:2280
T:Körepolska
T:(SvL Skåne 946)
T:efter Ola Grönvall
R:Körepolska
O:Värby, Bara, Skåne
S:Svenska Låtar Skåne
B:Svenska Låtar Skåne
Z:Åke Persson 2012-03-19
M:3/4
L:1/8
K:A
|: ec A2 ({d}cB) | GG(AB) cd | ec A2 {d}cB | GB A2 A2 :: Ac(ef) (gf) | df e2 e2 | 
Ac(ef) ({a}gf) | df ({b}ag) e2 | ec A2 (cB) | GG(AB) cd | ec A2 cB | GB A2 A2 :|
(:musicend:)
Korrigerad efter avskrift av Ola Grönvalls spelmansbok
i folkmsikkommissionens samlingar Sk 12 bild 11.
(:music:)
